flaticon/symbols/salt-1.svg

<svg xmlns="http://www.w3.org/2000/svg" width="32" height="32" viewBox="0 0 24 24">
    <path d="M 22.617188 10.617188 L 16.457031 10.617188 C 16.171875 10.617188 16.058594 10.398438 16.03125 10.332031 C 16.003906 10.265625 15.925781 10.03125 16.128906 9.828125 L 20.484375 5.472656 C 21.023438 4.933594 21.023438 4.054688 20.484375 3.515625 C 19.945312 2.976562 19.066406 2.976562 18.527344 3.515625 L 14.171875 7.871094 C 13.96875 8.070312 13.738281 7.996094 13.667969 7.96875 C 13.601562 7.941406 13.382812 7.828125 13.382812 7.542969 L 13.382812 1.382812 C 13.382812 0.621094 12.761719 0 12 0 C 11.238281 0 10.617188 0.621094 10.617188 1.382812 L 10.617188 7.542969 C 10.617188 7.828125 10.398438 7.941406 10.332031 7.96875 C 10.261719 7.996094 10.03125 8.070312 9.828125 7.871094 L 5.472656 3.515625 C 4.933594 2.976562 4.054688 2.976562 3.515625 3.515625 C 2.976562 4.054688 2.976562 4.933594 3.515625 5.472656 L 7.871094 9.828125 C 8.070312 10.03125 7.996094 10.265625 7.96875 10.332031 C 7.941406 10.398438 7.828125 10.617188 7.542969 10.617188 L 1.382812 10.617188 C 0.621094 10.617188 0 11.238281 0 12 C 0 12.761719 0.621094 13.382812 1.382812 13.382812 L 7.542969 13.382812 C 7.828125 13.382812 7.941406 13.601562 7.96875 13.667969 C 7.996094 13.734375 8.074219 13.96875 7.871094 14.171875 L 3.515625 18.527344 C 2.976562 19.066406 2.976562 19.945312 3.515625 20.484375 C 4.054688 21.023438 4.933594 21.023438 5.472656 20.484375 L 9.828125 16.128906 C 10.03125 15.929688 10.265625 16.003906 10.332031 16.03125 C 10.398438 16.058594 10.617188 16.171875 10.617188 16.457031 L 10.617188 22.617188 C 10.617188 23.378906 11.238281 24 12 24 C 12.761719 24 13.382812 23.378906 13.382812 22.617188 L 13.382812 16.457031 C 13.382812 16.171875 13.601562 16.058594 13.667969 16.03125 C 13.734375 16.003906 13.96875 15.929688 14.171875 16.128906 L 18.527344 20.484375 C 19.066406 21.023438 19.945312 21.023438 20.484375 20.484375 C 21.023438 19.945312 21.023438 19.066406 20.484375 18.527344 L 16.128906 14.171875 C 15.929688 13.96875 16.003906 13.734375 16.03125 13.667969 C 16.058594 13.601562 16.171875 13.382812 16.457031 13.382812 L 22.617188 13.382812 C 23.378906 13.382812 24 12.761719 24 12 C 24 11.238281 23.378906 10.617188 22.617188 10.617188 Z M 22.617188 12.460938 L 16.457031 12.460938 C 15.886719 12.460938 15.394531 12.789062 15.175781 13.316406 C 14.957031 13.84375 15.074219 14.421875 15.476562 14.824219 L 19.832031 19.179688 C 20.011719 19.359375 20.011719 19.652344 19.832031 19.832031 C 19.652344 20.015625 19.359375 20.015625 19.179688 19.832031 L 14.824219 15.476562 C 14.421875 15.074219 13.84375 14.960938 13.316406 15.179688 C 12.789062 15.394531 12.460938 15.886719 12.460938 16.457031 L 12.460938 22.617188 C 12.460938 22.871094 12.253906 23.078125 12 23.078125 C 11.746094 23.078125 11.539062 22.871094 11.539062 22.617188 L 11.539062 16.457031 C 11.539062 15.886719 11.210938 15.394531 10.683594 15.175781 C 10.507812 15.105469 10.324219 15.070312 10.144531 15.070312 C 9.789062 15.070312 9.441406 15.210938 9.175781 15.476562 L 4.820312 19.832031 C 4.640625 20.015625 4.347656 20.015625 4.167969 19.832031 C 3.988281 19.652344 3.988281 19.359375 4.167969 19.179688 L 8.523438 14.824219 C 8.925781 14.421875 9.039062 13.84375 8.820312 13.316406 C 8.605469 12.789062 8.113281 12.460938 7.542969 12.460938 L 1.382812 12.460938 C 1.128906 12.460938 0.921875 12.253906 0.921875 12 C 0.921875 11.746094 1.128906 11.539062 1.382812 11.539062 L 7.542969 11.539062 C 8.113281 11.539062 8.605469 11.210938 8.824219 10.683594 C 9.042969 10.15625 8.925781 9.578125 8.523438 9.175781 L 4.167969 4.820312 C 3.988281 4.640625 3.988281 4.347656 4.167969 4.167969 C 4.347656 3.984375 4.640625 3.984375 4.820312 4.167969 L 9.175781 8.523438 C 9.578125 8.925781 10.15625 9.039062 10.683594 8.820312 C 11.210938 8.605469 11.539062 8.113281 11.539062 7.542969 L 11.539062 1.382812 C 11.539062 1.128906 11.746094 0.921875 12 0.921875 C 12.253906 0.921875 12.460938 1.128906 12.460938 1.382812 L 12.460938 7.542969 C 12.460938 8.113281 12.789062 8.605469 13.316406 8.824219 C 13.84375 9.039062 14.421875 8.925781 14.824219 8.523438 L 19.179688 4.167969 C 19.359375 3.988281 19.652344 3.988281 19.832031 4.167969 C 20.011719 4.347656 20.011719 4.640625 19.832031 4.820312 L 15.476562 9.175781 C 15.074219 9.578125 14.960938 10.15625 15.179688 10.683594 C 15.394531 11.210938 15.886719 11.539062 16.457031 11.539062 L 22.617188 11.539062 C 22.871094 11.539062 23.078125 11.746094 23.078125 12 C 23.078125 12.253906 22.871094 12.460938 22.617188 12.460938 Z M 22.617188 12.460938"/>
</svg>

<svg xmlns="http://www.w3.org/2000/svg" width="32" height="32" viewBox="0 0 24 24">
    <path d="M22.617 10.617h-6.16a.453.453 0 0 1-.426-.285.451.451 0 0 1 .098-.504l4.355-4.355c.54-.54.54-1.418 0-1.957a1.386 1.386 0 0 0-1.957 0L14.172 7.87a.458.458 0 0 1-.504.098.453.453 0 0 1-.285-.426v-6.16C13.383.62 12.762 0 12 0s-1.383.621-1.383 1.383v6.16a.453.453 0 0 1-.285.426.458.458 0 0 1-.504-.098L5.473 3.516a1.386 1.386 0 0 0-1.957 0c-.54.539-.54 1.418 0 1.957L7.87 9.828c.2.203.125.438.098.504a.453.453 0 0 1-.426.285h-6.16C.62 10.617 0 11.238 0 12s.621 1.383 1.383 1.383h6.16c.285 0 .398.219.426.285.027.066.105.3-.098.504l-4.355 4.355c-.54.54-.54 1.418 0 1.957.539.54 1.418.54 1.957 0l4.355-4.355a.459.459 0 0 1 .504-.098c.066.028.285.14.285.426v6.16c0 .762.621 1.383 1.383 1.383s1.383-.621 1.383-1.383v-6.16c0-.285.219-.398.285-.426a.459.459 0 0 1 .504.098l4.355 4.355c.54.54 1.418.54 1.957 0 .54-.539.54-1.418 0-1.957l-4.355-4.355a.459.459 0 0 1-.098-.504.453.453 0 0 1 .426-.285h6.16C23.38 13.383 24 12.762 24 12s-.621-1.383-1.383-1.383zm0 1.844h-6.16c-.57 0-1.062.328-1.281.855a1.363 1.363 0 0 0 .3 1.508l4.356 4.356a.462.462 0 0 1-.652.652l-4.356-4.355a1.361 1.361 0 0 0-1.508-.297 1.358 1.358 0 0 0-.855 1.277v6.16a.462.462 0 0 1-.922 0v-6.16c0-.57-.328-1.062-.855-1.281a1.455 1.455 0 0 0-.54-.106c-.355 0-.703.14-.968.407L4.82 19.832a.462.462 0 0 1-.652-.652l4.355-4.356c.403-.402.516-.98.297-1.508a1.358 1.358 0 0 0-1.277-.855h-6.16a.462.462 0 0 1 0-.922h6.16c.57 0 1.062-.328 1.281-.855a1.363 1.363 0 0 0-.3-1.508L4.167 4.82a.462.462 0 0 1 .652-.652l4.356 4.355c.402.403.98.516 1.508.297.527-.215.855-.707.855-1.277v-6.16a.462.462 0 0 1 .922 0v6.16c0 .57.328 1.062.855 1.281a1.37 1.37 0 0 0 1.508-.3l4.356-4.356a.462.462 0 0 1 .652.652l-4.355 4.356c-.403.402-.516.98-.297 1.508.215.527.707.855 1.277.855h6.16a.462.462 0 0 1 0 .922zm0 0"/>
</svg>
